; generated by PrusaSlicer 2.8.0-alpha5+linux-x64-GTK3 on 2024-06-16 at 08:10:54 UTC


;
;
; 

; external perimeters extrusion width = 0.45mm
; perimeters extrusion width = 0.45mm
; infill extrusion width = 0.45mm
; solid infill extrusion width = 0.45mm
; top infill extrusion width = 0.40mm
; first layer extrusion width = 0.42mm

M73 P0 R302
M73 Q0 S304
M201 X1000 Y1000 Z200 E5000 ; sets maximum accelerations, mm/sec^2
M203 X200 Y200 Z12 E120 ; sets maximum feedrates, mm / sec
M204 S1250 T1250 ; sets acceleration (S) and retract acceleration (R), mm/sec^2
M205 X8.00 Y8.00 Z0.40 E4.50 ; sets the jerk limits, mm/sec
M205 S0 T0 ; sets the minimum extruding and travel feed rate, mm/sec

; printing object Box_bottom.stl id:0 copy 0
; stop printing object Box_bottom.stl id:0 copy 0

;TYPE:Custom
M862.3 P "MK3S" ; printer model check
M862.1 P0.4 ; nozzle diameter check
M115 U3.13.3 ; tell printer latest fw version
G90 ; use absolute coordinates
M83 ; extruder relative mode
M104 S215 ; set extruder temp
M140 S60 ; set bed temp
M190 S60 ; wait for bed temp
M109 S215 ; wait for extruder temp
G28 W ; home all without mesh bed level
G80 X66.6248 Y17.9041 W116.75 H174.192 ; mesh bed levelling

G1 Z0.2 F720
G1 Y-3 F1000 ; go outside print area
G92 E0
G1 X60 E9 F1000 ; intro line
G1 X100 E12.5 F1000 ; intro line

G92 E0
M221 S95

; Don't change E values below. Excessive value can damage the printer.
M907 E430 ; set extruder motor current
G21 ; set units to millimeters
G90 ; use absolute coordinates
M83 ; use relative distances for extrusion

M900 K0.05 ; Filament gcode LA 1.5
M900 K30 ; Filament gcode LA 1.0




M107
;LAYER_CHANGE
;Z:0.2
;HEIGHT:0.2
G1 E-.8 F2100
G1 Z.6 F720
G1 X67.261 Y30.529 F10800
G1 Z.2 F720
G1 E.8 F2100
M204 S800
;TYPE:Skirt/Brim
;WIDTH:0.42
G1 F1200
G1 X67.826 Y29.768 E.02972
G1 X77.918 Y19.209 E.45797
G1 X78.787 Y18.566 E.03389
G1 X79.464 Y18.277 E.02308
G1 X80.256 Y18.109 E.02539
G1 X169.681 Y18.103 E2.80386
G1 X170.536 Y18.277 E.02736
G1 X171.213 Y18.566 E.02308
G1 X171.929 Y19.063 E.02733
G1 X182.174 Y29.768 E.46459
G1 X182.739 Y30.529 E.02972
G1 X183.01 Y31.217 E.02318
G1 X183.187 Y32.293 E.03419
G1 X183.187 Y176.816 E4.53142
G1 X183.008 Y177.896 E.03432
G1 X182.734 Y178.587 E.02331
G1 X182.165 Y179.35 E.02984
G1 X171.14 Y190.801 E.4984
G1 X170.272 Y191.438 E.03376
G1 X169.598 Y191.725 E.02297
G1 X168.81 Y191.891 E.02525
G1 X81.685 Y191.907 E2.73174
G1 X80.65 Y191.733 E.03291
G1 X79.988 Y191.46 E.02245
G1 X79.133 Y190.85 E.03293
G1 X67.756 Y179.478 E.50436
G1 X67.289 Y178.848 E.02459
G1 X67.001 Y178.141 E.02394
G1 X66.813 Y177.034 E.03521
G1 X66.813 Y32.293 E4.53825
G1 X66.99 Y31.217 E.03419
G1 X67.239 Y30.585 E.0213
M204 S1000
;WIPE_START
G1 F8640
G1 X67.261 Y30.529 E-.01389
G1 X67.826 Y29.768 E-.21885
G1 X69.523 Y27.992 E-.56726
;WIPE_END
G1 Z.6 F720
; printing object Box_bottom.stl id:0 copy 0
G1 X168.467 Y188.129 F10800
G1 Z.2 F720
G1 E.8 F2100
M204 S800
;TYPE:Perimeter
;WIDTH:0.419999
G1 F1200
G1 X168.438 Y188.143 E.00101
G1 X81.793 Y188.143 E2.71669
G1 X81.723 Y188.119 E.00232
M73 Q0 S303
G1 X70.648 Y177.067 E.49057
G1 X70.571 Y176.882 E.00628
G1 X70.571 Y32.537 E4.52583
G1 X70.644 Y32.259 E.00901
G1 X80.562 Y21.89 E.44989
G1 X80.629 Y21.857 E.00234
M73 P0 R301
G1 X169.366 Y21.859 E2.78228
G1 X169.431 Y21.882 E.00216
G1 X179.356 Y32.259 E.45022
G1 X179.429 Y32.537 E.00901
G1 X179.429 Y176.57 E4.51605
G1 X179.355 Y176.85 E.00908
G1 X168.517 Y188.098 E.48975
M204 S1000
G1 X168.517 Y188.098 F10800
G1 X168.612 Y188.469
M204 S800
;TYPE:External perimeter
G1 F1200
G1 X168.476 Y188.52 E.00455
G1 X81.793 Y188.52 E2.71788
G1 X81.697 Y188.511 E.00302
G1 X81.483 Y188.412 E.00739
G1 X70.328 Y177.281 E.4941
G1 X70.194 Y176.957 E.01099
G1 X70.194 Y32.367 E4.53351
G1 X70.321 Y32.051 E.01068
G1 X80.289 Y21.629 E.45217
G1 X80.363 Y21.566 E.00305
G1 X80.59 Y21.48 E.00761
G1 X169.366 Y21.481 E2.7835
G1 X169.464 Y21.491 E.00309
G1 X169.677 Y21.594 E.00742
G1 X179.679 Y32.051 E.4537
G1 X179.806 Y32.367 E.01068
G1 X179.806 Y32.537 E.00533
G1 X179.806 Y176.741 E4.52141
G1 X179.678 Y177.059 E.01075
G1 X168.777 Y188.372 E.49259
G1 X168.702 Y188.435 E.00307
G1 X168.668 Y188.448 E.00114
M204 S1000
;WIPE_START
G1 F8640
G1 X168.612 Y188.469 E-.01381
G1 X168.476 Y188.52 E-.03354
G1 X165.216 Y188.52 E-.75265
;WIPE_END
G1 Z.6 F720
G1 X179.259 Y32.725 F10800
G1 Z.2 F720
G1 E.8 F2100
M204 S800
;TYPE:Solid infill
;WIDTH:0.420351
G1 F1200
G1 X168.732 Y22.198 E.46722
G1 X168.198 Y22.198 E.01676
G1 X179.089 Y33.089 E.48338
G1 X179.089 Y33.623 E.01676
G1 X167.664 Y22.198 E.50708
G1 X167.13 Y22.198 E.01676
G1 X179.089 Y34.157 E.53078
G1 X179.089 Y34.691 E.01676
G1 X166.597 Y22.198 E.55445
G1 X166.063 Y22.198 E.01676
G1 X179.089 Y35.224 E.57813
G1 X179.089 Y35.758 E.01676
G1 X165.529 Y22.198 E.60183
G1 X164.995 Y22.198 E.01676
G1 X179.089 Y36.292 E.62553
G1 X179.089 Y36.826 E.01676
G1 X164.461 Y22.198 E.64923
G1 X163.928 Y22.198 E.01673
M73 Q0 S302
G1 X179.089 Y37.359 E.67289
G1 X179.089 Y37.893 E.01676
G1 X163.394 Y22.198 E.69659
G1 X162.86 Y22.198 E.01676
G1 X179.089 Y38.427 E.72029
G1 X179.089 Y38.961 E.01676
G1 X162.326 Y22.198 E.74399
G1 X161.793 Y22.198 E.01673
G1 X179.089 Y39.495 E.76767
G1 X179.089 Y40.028 E.01673
G1 X161.259 Y22.198 E.79135
G1 X160.725 Y22.198 E.01676
G1 X179.089 Y40.562 E.81505
G1 X179.089 Y41.096 E.01676
G1 X160.191 Y22.198 E.83875
G1 X159.657 Y22.198 E.01676
G1 X179.089 Y41.63 E.86245
G1 X179.089 Y42.163 E.01673
M73 P0 R300
G1 X159.124 Y22.198 E.88611
G1 X158.59 Y22.198 E.01676
G1 X179.089 Y42.697 E.90981
G1 X179.089 Y43.231 E.01676
G1 X158.056 Y22.198 E.93351
G1 X157.522 Y22.198 E.01676
G1 X179.089 Y43.765 E.95721
G1 X179.089 Y44.298 E.01673
G1 X156.989 Y22.198 E.98086
G1 X156.455 Y22.198 E.01676
G1 X179.089 Y44.832 E1.00456
G1 X179.089 Y45.366 E.01676
G1 X155.921 Y22.198 E1.02827
G1 X155.387 Y22.198 E.01676
G1 X179.089 Y45.9 E1.05197
G1 X179.089 Y46.434 E.01676
G1 X154.853 Y22.198 E1.07567
G1 X154.32 Y22.198 E.01673
G1 X179.089 Y46.967 E1.09932
G1 X179.089 Y47.501 E.01676
G1 X153.786 Y22.198 E1.12302
G1 X153.252 Y22.198 E.01676
G1 X179.089 Y48.035 E1.14672
G1 X179.089 Y48.569 E.01676
G1 X152.718 Y22.198 E1.17042
G1 X152.185 Y22.198 E.01673
G1 X179.089 Y49.102 E1.19408
G1 X179.089 Y49.636 E.01676
G1 X151.651 Y22.198 E1.21778
G1 X151.117 Y22.198 E.01676
G1 X179.089 Y50.17 E1.24148
G1 X179.089 Y50.704 E.01676
G1 X150.583 Y22.198 E1.26518
G1 X150.049 Y22.197 E.01676
G1 X179.089 Y51.237 E1.28888
G1 X179.089 Y51.771 E.01676
G1 X149.516 Y22.197 E1.31256
G1 X148.982 Y22.197 E.01676
G1 X179.089 Y52.305 E1.33626
G1 X179.089 Y52.839 E.01676
G1 X148.448 Y22.197 E1.35996
G1 X147.914 Y22.197 E.01676
G1 X179.089 Y53.373 E1.38366
G1 X179.089 Y53.906 E.01673
G1 X147.381 Y22.197 E1.40732
G1 X146.847 Y22.197 E.01676
G1 X179.089 Y54.44 E1.43102
G1 X179.089 Y54.974 E.01676
G1 X146.313 Y22.197 E1.45472
G1 X145.779 Y22.197 E.01676
G1 X179.089 Y55.508 E1.47842
G1 X179.089 Y56.041 E.01673
M73 Q0 S301
G1 X145.245 Y22.197 E1.5021
G1 X144.712 Y22.197 E.01673
G1 X179.089 Y56.575 E1.52578
G1 X179.089 Y57.109 E.01676
G1 X144.178 Y22.197 E1.54948
G1 X143.644 Y22.197 E.01676
G1 X179.089 Y57.643 E1.57318
G1 X179.089 Y58.176 E.01673
M73 P0 R299
G1 X143.11 Y22.197 E1.59686
G1 X142.577 Y22.197 E.01673
G1 X179.089 Y58.71 E1.62053
G1 X179.089 Y59.244 E.01676
G1 X142.043 Y22.197 E1.64423
G1 X141.509 Y22.197 E.01676
G1 X179.089 Y59.778 E1.66794
G1 X179.089 Y60.311 E.01673
G1 X140.975 Y22.197 E1.69161
G1 X140.441 Y22.197 E.01676
M73 P1 R299
M73 Q1 S301
G1 X179.089 Y60.845 E1.71531
G1 X179.089 Y61.379 E.01676
G1 X139.908 Y22.197 E1.73899
G1 X139.374 Y22.197 E.01676
G1 X179.089 Y61.913 E1.76269
G1 X179.089 Y62.447 E.01676
G1 X138.84 Y22.197 E1.78639
G1 X138.306 Y22.197 E.01676
G1 X179.089 Y62.98 E1.81007
G1 X179.089 Y63.514 E.01676
G1 X137.772 Y22.197 E1.83377
G1 X137.239 Y22.197 E.01673
G1 X179.089 Y64.048 E1.85745
G1 X179.089 Y64.582 E.01676
G1 X136.705 Y22.197 E1.88115
G1 X136.171 Y22.197 E.01676
G1 X179.089 Y65.115 E1.90483
G1 X179.089 Y65.649 E.01676
G1 X135.637 Y22.197 E1.92853
G1 X135.104 Y22.197 E.01673
G1 X179.089 Y66.183 E1.95221
G1 X179.089 Y66.717 E.01676
G1 X134.57 Y22.197 E1.97591
G1 X134.036 Y22.197 E.01676
M73 Q1 S300
G1 X179.089 Y67.25 E1.99959
G1 X179.089 Y67.784 E.01676
G1 X133.502 Y22.197 E2.02329
G1 X132.968 Y22.197 E.01676
G1 X179.089 Y68.318 E2.04699
G1 X179.089 Y68.852 E.01676
G1 X132.435 Y22.197 E2.07067
G1 X131.901 Y22.197 E.01676
M73 P1 R298
G1 X179.089 Y69.386 E2.09437
G1 X179.089 Y69.919 E.01673
G1 X131.367 Y22.197 E2.11805
G1 X130.833 Y22.197 E.01676
G1 X179.089 Y70.453 E2.14175
G1 X179.089 Y70.987 E.01676
G1 X130.3 Y22.197 E2.16542
G1 X129.766 Y22.197 E.01676
G1 X179.089 Y71.521 E2.18912
G1 X179.089 Y72.054 E.01673
G1 X129.232 Y22.197 E2.2128
G1 X128.698 Y22.197 E.01676
G1 X179.089 Y72.588 E2.2365
G1 X179.089 Y73.122 E.01676
G1 X128.164 Y22.197 E2.2602
G1 X127.631 Y22.197 E.01673
G1 X179.089 Y73.656 E2.28388
G1 X179.089 Y74.189 E.01673
G1 X127.097 Y22.197 E2.30756
G1 X126.563 Y22.197 E.01676
G1 X179.089 Y74.723 E2.33126
G1 X179.089 Y75.257 E.01676
G1 X126.029 Y22.197 E2.35496
G1 X125.496 Y22.197 E.01673
G1 X179.089 Y75.791 E2.37864
G1 X179.089 Y76.325 E.01676
M73 Q1 S299
G1 X124.962 Y22.197 E2.40234
G1 X124.428 Y22.197 E.01676
G1 X179.089 Y76.858 E2.42602
G1 X179.089 Y77.392 E.01676
G1 X123.894 Y22.197 E2.44972
G1 X123.36 Y22.197 E.01676
M73 P1 R297
G1 X179.089 Y77.926 E2.47342
G1 X179.089 Y78.46 E.01676
G1 X122.827 Y22.197 E2.4971
G1 X122.293 Y22.197 E.01676
G1 X179.089 Y78.993 E2.52078
G1 X179.089 Y79.527 E.01676
G1 X121.759 Y22.197 E2.54448
G1 X121.225 Y22.197 E.01676
G1 X179.089 Y80.061 E2.56818
G1 X179.089 Y80.595 E.01676
G1 X120.692 Y22.197 E2.59186
G1 X120.158 Y22.197 E.01676
G1 X179.089 Y81.128 E2.61553
G1 X179.089 Y81.662 E.01676
G1 X119.624 Y22.197 E2.63923
G1 X119.09 Y22.197 E.01676
G1 X179.089 Y82.196 E2.66294
G1 X179.089 Y82.73 E.01676
G1 X118.556 Y22.197 E2.68664
G1 X118.023 Y22.197 E.01673
G1 X179.089 Y83.264 E2.71031
G1 X179.089 Y83.797 E.01673
G1 X117.489 Y22.197 E2.73399
G1 X116.955 Y22.197 E.01676
M73 Q1 S298
G1 X179.089 Y84.331 E2.75769
G1 X179.089 Y84.865 E.01676
G1 X116.421 Y22.197 E2.78139
G1 X115.888 Y22.197 E.01673
M73 P1 R296
G1 X179.089 Y85.399 E2.80507
G1 X179.089 Y85.932 E.01673
G1 X115.354 Y22.197 E2.82875
G1 X114.82 Y22.197 E.01676
G1 X179.089 Y86.466 E2.85245
G1 X179.089 Y87 E.01676
G1 X114.286 Y22.197 E2.87615
G1 X113.752 Y22.197 E.01676
M73 P2 R296
M73 Q2 S298
G1 X179.089 Y87.534 E2.89985
G1 X179.089 Y88.067 E.01673
G1 X113.219 Y22.197 E2.92351
G1 X112.685 Y22.197 E.01676
G1 X179.089 Y88.601 E2.94721
G1 X179.089 Y89.135 E.01676
G1 X112.151 Y22.197 E2.97091
G1 X111.617 Y22.197 E.01676
G1 X179.089 Y89.669 E2.99461
G1 X179.089 Y90.203 E.01676
G1 X111.084 Y22.197 E3.01829
G1 X110.55 Y22.197 E.01676
G1 X179.089 Y90.736 E3.04197
G1 X179.089 Y91.27 E.01676
M73 Q2 S297
G1 X110.016 Y22.197 E3.06567
G1 X109.482 Y22.197 E.01676
G1 X179.089 Y91.804 E3.08937
G1 X179.089 Y92.338 E.01676
M73 P2 R295
G1 X108.948 Y22.197 E3.11307
G1 X108.415 Y22.197 E.01673
G1 X179.089 Y92.871 E3.13672
G1 X179.089 Y93.405 E.01676
G1 X107.881 Y22.197 E3.16042
G1 X107.347 Y22.197 E.01676
G1 X179.089 Y93.939 E3.18412
G1 X179.089 Y94.473 E.01676
G1 X106.813 Y22.197 E3.20783
G1 X106.28 Y22.197 E.01673
G1 X179.089 Y95.006 E3.23148
G1 X179.089 Y95.54 E.01676
G1 X105.746 Y22.197 E3.25518
G1 X105.212 Y22.197 E.01676
G1 X179.089 Y96.074 E3.27888
G1 X179.089 Y96.608 E.01676
G1 X104.678 Y22.197 E3.30258
G1 X104.144 Y22.197 E.01676
G1 X179.089 Y97.141 E3.32626
G1 X179.089 Y97.675 E.01676
M73 Q2 S296
G1 X103.611 Y22.196 E3.34996
G1 X103.077 Y22.196 E.01676
G1 X179.089 Y98.209 E3.37366
G1 X179.089 Y98.743 E.01676
M73 P2 R294
G1 X102.543 Y22.196 E3.39736
G1 X102.009 Y22.196 E.01676
G1 X179.089 Y99.277 E3.42106
G1 X179.089 Y99.81 E.01673
G1 X101.475 Y22.196 E3.44474
G1 X100.942 Y22.196 E.01673
G1 X179.089 Y100.344 E3.46842
G1 X179.089 Y100.878 E.01676
G1 X100.408 Y22.196 E3.49212
G1 X99.874 Y22.196 E.01676
G1 X179.089 Y101.412 E3.51582
G1 X179.089 Y101.945 E.01673
G1 X99.34 Y22.196 E3.5395
G1 X98.807 Y22.196 E.01673
G1 X179.089 Y102.479 E3.56318
G1 X179.089 Y103.013 E.01676
M73 Q2 S295
G1 X98.273 Y22.196 E3.58688
G1 X97.739 Y22.196 E.01676
G1 X179.089 Y103.547 E3.61058
G1 X179.089 Y104.08 E.01673
M73 P2 R293
G1 X97.205 Y22.196 E3.63426
G1 X96.671 Y22.196 E.01676
G1 X179.089 Y104.614 E3.65796
G1 X179.089 Y105.148 E.01676
G1 X96.138 Y22.196 E3.68164
G1 X95.604 Y22.196 E.01676
M73 P3 R293
M73 Q3 S295
G1 X179.089 Y105.682 E3.70534
G1 X179.089 Y106.216 E.01676
G1 X95.07 Y22.196 E3.72904
G1 X94.536 Y22.196 E.01676
G1 X179.089 Y106.749 E3.75272
G1 X179.089 Y107.283 E.01676
G1 X94.003 Y22.196 E3.77639
G1 X93.469 Y22.196 E.01676
G1 X179.089 Y107.817 E3.80009
G1 X179.089 Y108.351 E.01676
G1 X92.935 Y22.196 E3.82379
G1 X92.401 Y22.196 E.01676
M73 Q3 S294
G1 X179.089 Y108.884 E3.84747
G1 X179.089 Y109.418 E.01676
M73 P3 R292
G1 X91.867 Y22.196 E3.87117
G1 X91.334 Y22.196 E.01673
G1 X179.089 Y109.952 E3.89485
G1 X179.089 Y110.486 E.01676
G1 X90.8 Y22.196 E3.91855
G1 X90.266 Y22.196 E.01676
G1 X179.089 Y111.019 E3.94223
G1 X179.089 Y111.553 E.01676
G1 X89.732 Y22.196 E3.96593
G1 X89.199 Y22.196 E.01673
G1 X179.089 Y112.087 E3.98961
G1 X179.089 Y112.621 E.01676
G1 X88.665 Y22.196 E4.01331
G1 X88.131 Y22.196 E.01676
G1 X179.089 Y113.155 E4.03701
G1 X179.089 Y113.688 E.01673
M73 Q3 S293
G1 X87.597 Y22.196 E4.06069
G1 X87.063 Y22.196 E.01676
G1 X179.089 Y114.222 E4.08439
G1 X179.089 Y114.756 E.01676
M73 P3 R291
G1 X86.53 Y22.196 E4.10807
G1 X85.996 Y22.196 E.01676
G1 X179.089 Y115.29 E4.13177
G1 X179.089 Y115.823 E.01673
G1 X85.462 Y22.196 E4.15545
G1 X84.928 Y22.196 E.01676
G1 X179.089 Y116.357 E4.17915
G1 X179.089 Y116.891 E.01676
G1 X84.395 Y22.196 E4.20283
G1 X83.861 Y22.196 E.01676
G1 X179.089 Y117.425 E4.22653
G1 X179.089 Y117.958 E.01673
G1 X83.327 Y22.196 E4.2502
G1 X82.793 Y22.196 E.01676
M73 Q3 S292
G1 X179.089 Y118.492 E4.2739
G1 X179.089 Y119.026 E.01676
G1 X82.259 Y22.196 E4.29761
G1 X81.726 Y22.196 E.01673
M73 P3 R290
G1 X179.089 Y119.56 E4.32128
G1 X179.089 Y120.094 E.01676
G1 X81.192 Y22.196 E4.34498
G1 X80.738 Y22.196 E.01425
M73 P4 R290
G1 X80.699 Y22.237 E.00178
G1 X179.089 Y120.627 E4.36684
G1 X179.089 Y121.161 E.01676
M73 Q4 S292
G1 X80.438 Y22.51 E4.37843
G1 X80.177 Y22.783 E.01185
G1 X179.089 Y121.695 E4.39001
G1 X179.089 Y122.229 E.01676
G1 X79.916 Y23.056 E4.40159
G1 X79.655 Y23.328 E.01183
G1 X179.089 Y122.762 E4.41318
G1 X179.089 Y123.296 E.01676
M73 Q4 S291
G1 X79.394 Y23.601 E4.42476
G1 X79.133 Y23.874 E.01185
M73 P4 R289
G1 X179.089 Y123.83 E4.43635
G1 X179.089 Y124.364 E.01676
G1 X78.873 Y24.147 E4.44791
G1 X78.612 Y24.42 E.01185
G1 X179.089 Y124.897 E4.45947
G1 X179.089 Y125.431 E.01676
G1 X78.351 Y24.692 E4.47108
G1 X78.09 Y24.965 E.01185
G1 X179.089 Y125.965 E4.48266
G1 X179.089 Y126.499 E.01676
G1 X77.829 Y25.238 E4.49424
G1 X77.568 Y25.511 E.01185
G1 X179.089 Y127.032 E4.50581
G1 X179.089 Y127.566 E.01676
M73 Q4 S290
G1 X77.307 Y25.784 E4.51739
G1 X77.046 Y26.057 E.01185
G1 X179.089 Y128.1 E4.52897
G1 X179.089 Y128.634 E.01676
M73 P4 R288
G1 X76.785 Y26.329 E4.54058
G1 X76.524 Y26.602 E.01185
G1 X179.089 Y129.168 E4.55216
G1 X179.089 Y129.701 E.01673
G1 X76.263 Y26.875 E4.56373
G1 X76.002 Y27.148 E.01185
G1 X179.089 Y130.235 E4.57531
G1 X179.089 Y130.769 E.01676
G1 X75.741 Y27.421 E4.58689
G1 X75.48 Y27.693 E.01183
G1 X179.089 Y131.303 E4.5985
G1 X179.089 Y131.836 E.01673
M73 Q4 S289
G1 X75.219 Y27.966 E4.61006
G1 X74.958 Y28.239 E.01185
G1 X179.089 Y132.37 E4.62165
G1 X179.089 Y132.904 E.01676
M73 P4 R287
G1 X74.697 Y28.512 E4.63323
G1 X74.436 Y28.785 E.01185
G1 X179.089 Y133.438 E4.64481
G1 X179.089 Y133.971 E.01673
G1 X74.175 Y29.058 E4.65638
G1 X73.914 Y29.33 E.01183
M73 P5 R287
M73 Q5 S289
G1 X179.089 Y134.505 E4.66798
G1 X179.089 Y135.039 E.01676
G1 X73.653 Y29.603 E4.67957
G1 X73.393 Y29.876 E.01183
G1 X179.089 Y135.573 E4.69113
G1 X179.089 Y136.107 E.01676
M73 Q5 S288
G1 X73.132 Y30.149 E4.70271
G1 X72.871 Y30.422 E.01185
G1 X179.089 Y136.64 E4.71427
G1 X179.089 Y137.174 E.01676
