; generated by PrusaSlicer 2.8.0-alpha5+linux-x64-GTK3 on 2024-06-16 at 08:08:56 UTC


;
;
; 

; external perimeters extrusion width = 0.45mm
; perimeters extrusion width = 0.45mm
; infill extrusion width = 0.45mm
; solid infill extrusion width = 0.45mm
; top infill extrusion width = 0.40mm
; support material extrusion width = 0.35mm
; first layer extrusion width = 0.42mm

; external perimeters extrusion width = 0.45mm
; perimeters extrusion width = 0.45mm
; infill extrusion width = 0.45mm
; solid infill extrusion width = 0.45mm
; top infill extrusion width = 0.40mm
; support material extrusion width = 0.35mm
; first layer extrusion width = 0.42mm

; external perimeters extrusion width = 0.45mm
; perimeters extrusion width = 0.45mm
; infill extrusion width = 0.45mm
; solid infill extrusion width = 0.45mm
; top infill extrusion width = 0.40mm
; support material extrusion width = 0.35mm
; first layer extrusion width = 0.42mm

; external perimeters extrusion width = 0.45mm
; perimeters extrusion width = 0.45mm
; infill extrusion width = 0.45mm
; solid infill extrusion width = 0.45mm
; top infill extrusion width = 0.40mm
; support material extrusion width = 0.35mm
; first layer extrusion width = 0.42mm

; external perimeters extrusion width = 0.45mm
; perimeters extrusion width = 0.45mm
; infill extrusion width = 0.45mm
; solid infill extrusion width = 0.45mm
; top infill extrusion width = 0.40mm
; support material extrusion width = 0.35mm
; first layer extrusion width = 0.42mm

; external perimeters extrusion width = 0.45mm
; perimeters extrusion width = 0.45mm
; infill extrusion width = 0.45mm
; solid infill extrusion width = 0.45mm
; top infill extrusion width = 0.40mm
; support material extrusion width = 0.35mm
; first layer extrusion width = 0.42mm

; external perimeters extrusion width = 0.45mm
; perimeters extrusion width = 0.45mm
; infill extrusion width = 0.45mm
; solid infill extrusion width = 0.45mm
; top infill extrusion width = 0.40mm
; support material extrusion width = 0.35mm
; first layer extrusion width = 0.42mm

M73 P0 R262
M73 Q0 S265
M201 X1000 Y1000 Z200 E5000 ; sets maximum accelerations, mm/sec^2
M203 X200 Y200 Z12 E120 ; sets maximum feedrates, mm / sec
M204 S1250 T1250 ; sets acceleration (S) and retract acceleration (R), mm/sec^2
M205 X8.00 Y8.00 Z0.40 E4.50 ; sets the jerk limits, mm/sec
M205 S0 T0 ; sets the minimum extruding and travel feed rate, mm/sec

; printing object barre_son.stl id:4 copy 0
; stop printing object barre_son.stl id:4 copy 0
; printing object b_button.stl id:1 copy 0
; stop printing object b_button.stl id:1 copy 0
; printing object home_button.stl id:2 copy 0
; stop printing object home_button.stl id:2 copy 0
; printing object b_button.stl id:0 copy 0
; stop printing object b_button.stl id:0 copy 0
; printing object Box_top.stl id:6 copy 0
; stop printing object Box_top.stl id:6 copy 0
; printing object barre_allumer.stl id:5 copy 0
; stop printing object barre_allumer.stl id:5 copy 0
; printing object croix_directionnelle.stl id:3 copy 0
; stop printing object croix_directionnelle.stl id:3 copy 0

;TYPE:Custom
M862.3 P "MK3S" ; printer model check
M862.1 P0.4 ; nozzle diameter check
M115 U3.13.3 ; tell printer latest fw version
G90 ; use absolute coordinates
M83 ; extruder relative mode
M104 S215 ; set extruder temp
M140 S60 ; set bed temp
M190 S60 ; wait for bed temp
M109 S215 ; wait for extruder temp
G28 W ; home all without mesh bed level
G80 X10.8155 Y11.8054 W224.236 H178.422 ; mesh bed levelling

G1 Z0.2 F720
G1 Y-3 F1000 ; go outside print area
G92 E0
G1 X60 E9 F1000 ; intro line
G1 X100 E12.5 F1000 ; intro line

G92 E0
M221 S95

; Don't change E values below. Excessive value can damage the printer.
M907 E430 ; set extruder motor current
G21 ; set units to millimeters
G90 ; use absolute coordinates
M83 ; use relative distances for extrusion

M900 K0.05 ; Filament gcode LA 1.5
M900 K30 ; Filament gcode LA 1.0




M107
;LAYER_CHANGE
;Z:0.2
;HEIGHT:0.2
G1 E-.8 F2100
G1 Z.6 F720
G1 X16.754 Y16.754 F10800
G1 Z.2 F720
G1 E.8 F2100
M204 S800
;TYPE:Skirt/Brim
;WIDTH:0.42
G1 F1200
G1 X20.873 Y12.635 E.18264
G1 X22.421 Y11.994 E.05253
G1 X125.205 Y11.994 E3.22272
G1 X126.005 Y12.145 E.02553
M73 Q0 S264
G1 X220.096 Y49.065 E3.16914
G1 X220.844 Y49.554 E.02802
G1 X227.765 Y56.476 E.30691
G1 X228.402 Y57.898 E.04885
G1 X234.86 Y170.279 E3.52944
G1 X234.853 Y175.658 E.16865
G1 X234.759 Y176.177 E.01654
G1 X234.521 Y176.753 E.01954
G1 X233.866 Y177.53 E.03186
G1 X233.425 Y177.821 E.01657
G1 X232.593 Y178.099 E.0275
G1 X214.945 Y180.293 E.5576
G1 X122.491 Y190.026 E2.91485
G1 X25.364 Y190.038 E3.04535
M73 P0 R261
G1 X23.817 Y189.397 E.0525
G1 X14.589 Y180.169 E.40918
G1 X13.948 Y178.665 E.05126
G1 X11.005 Y31.341 E4.62016
G1 X11.004 Y23.411 E.24864
G1 X11.645 Y21.863 E.05253
G1 X16.712 Y16.797 E.22466
M204 S1000
;WIPE_START
G1 F8640
G1 X16.754 Y16.754 E-.01388
G1 X19.162 Y14.347 E-.78612
;WIPE_END
G1 Z.6 F720
; printing object Box_top.stl id:6 copy 0
G1 X131.266 Y178.622 F10800
G1 Z.2 F720
G1 E.8 F2100
M204 S800
;TYPE:Support material interface
;WIDTH:0.35
G1 F1200
G1 X131.49 Y178.622 E.00572
G1 X131.49 Y28.661 E3.82907
G1 X131.113 Y28.661 E.00963
G1 X131.113 Y178.622 E3.82907
G1 X130.606 Y178.622 E.01295
G1 X130.606 Y28.661 E3.82907
G1 X130.099 Y28.661 E.01295
G1 X130.099 Y178.622 E3.82907
G1 X129.592 Y178.622 E.01295
M73 Q0 S263
G1 X129.592 Y176.144 E.06327
G1 X129.853 Y175.511 E.01748
M204 S1000
G1 X129.853 Y175.511 F10800
G1 X129.512 Y176.275
M204 S800
G1 F1200
G1 X129.085 Y176.722 E.01578
G1 X129.085 Y180.929 E.10742
G1 X128.578 Y180.929 E.01295
G1 X128.578 Y177.252 E.09389
G1 X128.07 Y177.782 E.01875
G1 X128.07 Y180.929 E.08035
G1 X127.563 Y180.929 E.01295
G1 X127.563 Y178.312 E.06682
G1 X127.056 Y178.843 E.01875
G1 X127.056 Y180.929 E.05326
G1 X126.876 Y180.929 E.0046
G1 X126.876 Y183.236 E.05891
G1 X126.549 Y183.236 E.00835
G1 X126.549 Y179.373 E.09864
G1 X126.042 Y179.903 E.01873
G1 X126.042 Y183.236 E.0851
G1 X125.535 Y183.236 E.01295
G1 X125.535 Y180.433 E.07157
G1 X125.028 Y180.963 E.01873
G1 X125.028 Y183.236 E.05804
G1 X124.767 Y183.236 E.00666
M204 S1000
;WIPE_START
G1 F8640
G1 X125.028 Y183.236 E-.06027
G1 X125.028 Y180.963 E-.52484
G1 X125.535 Y180.433 E-.16936
G1 X125.535 Y180.63 E-.04553
;WIPE_END
G1 Z.6 F720
G1 X124.922 Y181.074 F10800
G1 Z.2 F720
G1 E.8 F2100
M204 S800
G1 F1200
G1 X124.521 Y181.493 E.01481
G1 X124.521 Y185.543 E.10341
G1 X124.014 Y185.543 E.01295
G1 X124.014 Y182.023 E.08988
G1 X123.507 Y182.554 E.01875
G1 X123.507 Y185.543 E.07632
G1 X123 Y185.543 E.01295
G1 X123 Y183.084 E.06279
G1 X122.493 Y183.614 E.01873
G1 X122.493 Y185.543 E.04925
G1 X122.262 Y185.543 E.0059
G1 X122.262 Y187.85 E.05891
G1 X121.986 Y187.85 E.00705
G1 X121.986 Y184.144 E.09463
G1 X121.478 Y184.674 E.01875
G1 X121.478 Y187.85 E.0811
G1 X120.971 Y187.85 E.01295
G1 X120.971 Y185.204 E.06756
G1 X120.464 Y185.734 E.01873
G1 X120.464 Y187.85 E.05403
G1 X119.957 Y187.85 E.01295
G1 X119.957 Y186.265 E.04047
G1 X119.45 Y186.795 E.01873
G1 X119.45 Y187.85 E.02694
G1 X118.943 Y187.85 E.01295
G1 X118.943 Y187.17 E.01736
G1 X118.436 Y187.298 E.01335
G1 X118.436 Y187.85 E.01409
G1 X117.929 Y187.85 E.01295
G1 X117.929 Y187.325 E.01341
G1 X117.422 Y187.325 E.01295
G1 X117.422 Y187.85 E.01341
G1 X116.915 Y187.85 E.01295
G1 X116.915 Y187.325 E.01341
G1 X116.408 Y187.325 E.01295
G1 X116.408 Y187.85 E.01341
G1 X115.901 Y187.85 E.01295
G1 X115.901 Y187.325 E.01341
G1 X115.393 Y187.325 E.01297
G1 X115.393 Y187.85 E.01341
G1 X114.886 Y187.85 E.01295
G1 X114.886 Y187.325 E.01341
G1 X114.379 Y187.325 E.01295
G1 X114.379 Y187.85 E.01341
G1 X113.872 Y187.85 E.01295
G1 X113.872 Y187.325 E.01341
G1 X113.365 Y187.325 E.01295
G1 X113.365 Y187.85 E.01341
G1 X112.858 Y187.85 E.01295
G1 X112.858 Y187.325 E.01341
G1 X112.351 Y187.325 E.01295
G1 X112.351 Y187.85 E.01341
G1 X111.844 Y187.85 E.01295
G1 X111.844 Y187.325 E.01341
G1 X111.337 Y187.325 E.01295
G1 X111.337 Y187.85 E.01341
G1 X110.83 Y187.85 E.01295
G1 X110.83 Y187.325 E.01341
G1 X110.323 Y187.325 E.01295
G1 X110.323 Y187.85 E.01341
G1 X109.816 Y187.85 E.01295
G1 X109.816 Y187.325 E.01341
G1 X109.309 Y187.325 E.01295
G1 X109.309 Y187.85 E.01341
G1 X108.801 Y187.85 E.01297
G1 X108.801 Y187.325 E.01341
G1 X108.294 Y187.325 E.01295
G1 X108.294 Y187.85 E.01341
G1 X107.787 Y187.85 E.01295
G1 X107.787 Y187.325 E.01341
G1 X107.28 Y187.325 E.01295
G1 X107.28 Y187.85 E.01341
G1 X106.773 Y187.85 E.01295
G1 X106.773 Y187.325 E.01341
G1 X106.266 Y187.325 E.01295
G1 X106.266 Y187.85 E.01341
G1 X105.759 Y187.85 E.01295
G1 X105.759 Y187.325 E.01341
G1 X105.252 Y187.325 E.01295
G1 X105.252 Y187.85 E.01341
G1 X104.745 Y187.85 E.01295
G1 X104.745 Y187.325 E.01341
G1 X104.238 Y187.325 E.01295
G1 X104.238 Y187.85 E.01341
G1 X103.731 Y187.85 E.01295
G1 X103.731 Y187.325 E.01341
G1 X103.224 Y187.325 E.01295
G1 X103.224 Y187.85 E.01341
G1 X102.717 Y187.85 E.01295
G1 X102.717 Y187.325 E.01341
G1 X102.209 Y187.325 E.01297
G1 X102.209 Y187.85 E.01341
G1 X101.702 Y187.85 E.01295
G1 X101.702 Y187.325 E.01341
G1 X101.195 Y187.325 E.01295
G1 X101.195 Y187.85 E.01341
G1 X100.688 Y187.85 E.01295
G1 X100.688 Y187.325 E.01341
G1 X100.181 Y187.325 E.01295
G1 X100.181 Y187.85 E.01341
G1 X99.674 Y187.85 E.01295
G1 X99.674 Y187.325 E.01341
G1 X99.167 Y187.325 E.01295
G1 X99.167 Y187.85 E.01341
G1 X98.66 Y187.85 E.01295
G1 X98.66 Y187.325 E.01341
G1 X98.153 Y187.325 E.01295
G1 X98.153 Y187.85 E.01341
G1 X97.646 Y187.85 E.01295
G1 X97.646 Y187.325 E.01341
G1 X97.139 Y187.325 E.01295
G1 X97.139 Y187.85 E.01341
G1 X96.632 Y187.85 E.01295
G1 X96.632 Y187.325 E.01341
G1 X96.124 Y187.325 E.01297
G1 X96.124 Y187.85 E.01341
G1 X95.617 Y187.85 E.01295
G1 X95.617 Y187.325 E.01341
G1 X95.11 Y187.325 E.01295
G1 X95.11 Y187.85 E.01341
G1 X94.603 Y187.85 E.01295
G1 X94.603 Y187.325 E.01341
G1 X94.096 Y187.325 E.01295
G1 X94.096 Y187.85 E.01341
G1 X93.589 Y187.85 E.01295
G1 X93.589 Y187.325 E.01341
G1 X93.082 Y187.325 E.01295
G1 X93.082 Y187.85 E.01341
G1 X92.575 Y187.85 E.01295
G1 X92.575 Y187.325 E.01341
G1 X92.068 Y187.325 E.01295
G1 X92.068 Y187.85 E.01341
G1 X91.561 Y187.85 E.01295
G1 X91.561 Y187.325 E.01341
G1 X91.054 Y187.325 E.01295
G1 X91.054 Y187.85 E.01341
G1 X90.547 Y187.85 E.01295
G1 X90.547 Y187.325 E.01341
G1 X90.04 Y187.325 E.01295
G1 X90.04 Y187.85 E.01341
G1 X89.532 Y187.85 E.01297
G1 X89.532 Y187.325 E.01341
G1 X89.025 Y187.325 E.01295
G1 X89.025 Y187.85 E.01341
G1 X88.518 Y187.85 E.01295
G1 X88.518 Y187.325 E.01341
G1 X88.011 Y187.325 E.01295
G1 X88.011 Y187.85 E.01341
G1 X87.504 Y187.85 E.01295
G1 X87.504 Y187.325 E.01341
G1 X86.997 Y187.325 E.01295
G1 X86.997 Y187.85 E.01341
G1 X86.49 Y187.85 E.01295
G1 X86.49 Y187.325 E.01341
G1 X85.983 Y187.325 E.01295
G1 X85.983 Y187.85 E.01341
G1 X85.476 Y187.85 E.01295
G1 X85.476 Y187.325 E.01341
G1 X84.969 Y187.325 E.01295
G1 X84.969 Y187.85 E.01341
G1 X84.462 Y187.85 E.01295
G1 X84.462 Y187.325 E.01341
G1 X83.955 Y187.325 E.01295
G1 X83.955 Y187.85 E.01341
G1 X83.448 Y187.85 E.01295
G1 X83.448 Y187.325 E.01341
G1 X82.94 Y187.325 E.01297
G1 X82.94 Y187.85 E.01341
G1 X82.433 Y187.85 E.01295
G1 X82.433 Y187.325 E.01341
G1 X81.926 Y187.325 E.01295
G1 X81.926 Y187.85 E.01341
G1 X81.419 Y187.85 E.01295
G1 X81.419 Y187.325 E.01341
G1 X80.912 Y187.325 E.01295
G1 X80.912 Y187.85 E.01341
G1 X80.405 Y187.85 E.01295
G1 X80.405 Y187.325 E.01341
G1 X79.898 Y187.325 E.01295
G1 X79.898 Y187.85 E.01341
G1 X79.391 Y187.85 E.01295
G1 X79.391 Y187.325 E.01341
G1 X78.884 Y187.325 E.01295
G1 X78.884 Y187.85 E.01341
G1 X78.377 Y187.85 E.01295
G1 X78.377 Y187.325 E.01341
G1 X77.87 Y187.325 E.01295
G1 X77.87 Y187.85 E.01341
G1 X77.363 Y187.85 E.01295
G1 X77.363 Y187.325 E.01341
G1 X76.855 Y187.325 E.01297
G1 X76.855 Y187.85 E.01341
G1 X76.348 Y187.85 E.01295
G1 X76.348 Y187.325 E.01341
G1 X75.841 Y187.325 E.01295
G1 X75.841 Y187.85 E.01341
G1 X75.334 Y187.85 E.01295
G1 X75.334 Y187.325 E.01341
G1 X74.827 Y187.325 E.01295
G1 X74.827 Y187.85 E.01341
G1 X74.32 Y187.85 E.01295
G1 X74.32 Y187.325 E.01341
G1 X73.813 Y187.325 E.01295
G1 X73.813 Y187.85 E.01341
G1 X73.306 Y187.85 E.01295
G1 X73.306 Y187.325 E.01341
G1 X72.799 Y187.325 E.01295
G1 X72.799 Y187.85 E.01341
G1 X72.292 Y187.85 E.01295
G1 X72.292 Y187.325 E.01341
G1 X71.785 Y187.325 E.01295
G1 X71.785 Y187.85 E.01341
G1 X71.278 Y187.85 E.01295
G1 X71.278 Y187.325 E.01341
G1 X70.771 Y187.325 E.01295
G1 X70.771 Y187.85 E.01341
G1 X70.263 Y187.85 E.01297
G1 X70.263 Y187.325 E.01341
G1 X69.756 Y187.325 E.01295
G1 X69.756 Y187.85 E.01341
G1 X69.249 Y187.85 E.01295
G1 X69.249 Y187.325 E.01341
G1 X68.742 Y187.325 E.01295
G1 X68.742 Y187.85 E.01341
G1 X68.235 Y187.85 E.01295
G1 X68.235 Y187.325 E.01341
G1 X67.728 Y187.325 E.01295
G1 X67.728 Y187.85 E.01341
G1 X67.221 Y187.85 E.01295
G1 X67.221 Y187.325 E.01341
G1 X66.714 Y187.325 E.01295
G1 X66.714 Y187.85 E.01341
G1 X66.207 Y187.85 E.01295
G1 X66.207 Y187.325 E.01341
G1 X65.7 Y187.325 E.01295
G1 X65.7 Y187.85 E.01341
G1 X65.193 Y187.85 E.01295
G1 X65.193 Y187.325 E.01341
G1 X64.686 Y187.325 E.01295
G1 X64.686 Y187.85 E.01341
G1 X64.179 Y187.85 E.01295
G1 X64.179 Y187.325 E.01341
G1 X63.671 Y187.325 E.01297
G1 X63.671 Y187.85 E.01341
G1 X63.164 Y187.85 E.01295
G1 X63.164 Y187.325 E.01341
G1 X62.657 Y187.325 E.01295
G1 X62.657 Y187.85 E.01341
G1 X62.15 Y187.85 E.01295
G1 X62.15 Y187.325 E.01341
M73 P0 R260
G1 X61.643 Y187.325 E.01295
G1 X61.643 Y187.85 E.01341
G1 X61.136 Y187.85 E.01295
G1 X61.136 Y187.325 E.01341
G1 X60.629 Y187.325 E.01295
G1 X60.629 Y187.85 E.01341
G1 X60.122 Y187.85 E.01295
G1 X60.122 Y187.325 E.01341
G1 X59.615 Y187.325 E.01295
G1 X59.615 Y187.85 E.01341
G1 X59.108 Y187.85 E.01295
G1 X59.108 Y187.325 E.01341
G1 X58.601 Y187.325 E.01295
G1 X58.601 Y187.85 E.01341
G1 X58.094 Y187.85 E.01295
G1 X58.094 Y187.325 E.01341
G1 X57.586 Y187.325 E.01297
G1 X57.586 Y187.85 E.01341
G1 X57.079 Y187.85 E.01295
G1 X57.079 Y187.325 E.01341
G1 X56.572 Y187.325 E.01295
G1 X56.572 Y187.85 E.01341
G1 X56.065 Y187.85 E.01295
G1 X56.065 Y187.325 E.01341
G1 X55.558 Y187.325 E.01295
G1 X55.558 Y187.85 E.01341
G1 X55.051 Y187.85 E.01295
G1 X55.051 Y187.325 E.01341
G1 X54.544 Y187.325 E.01295
G1 X54.544 Y187.85 E.01341
G1 X54.037 Y187.85 E.01295
G1 X54.037 Y187.325 E.01341
G1 X53.53 Y187.325 E.01295
G1 X53.53 Y187.85 E.01341
G1 X53.023 Y187.85 E.01295
G1 X53.023 Y187.325 E.01341
G1 X52.516 Y187.325 E.01295
G1 X52.516 Y187.85 E.01341
G1 X52.009 Y187.85 E.01295
G1 X52.009 Y187.325 E.01341
G1 X51.502 Y187.325 E.01295
G1 X51.502 Y187.85 E.01341
G1 X50.994 Y187.85 E.01297
G1 X50.994 Y187.325 E.01341
G1 X50.487 Y187.325 E.01295
G1 X50.487 Y187.85 E.01341
G1 X49.98 Y187.85 E.01295
G1 X49.98 Y187.325 E.01341
G1 X49.473 Y187.325 E.01295
G1 X49.473 Y187.85 E.01341
G1 X48.966 Y187.85 E.01295
G1 X48.966 Y187.325 E.01341
G1 X48.459 Y187.325 E.01295
G1 X48.459 Y187.85 E.01341
G1 X47.952 Y187.85 E.01295
G1 X47.952 Y187.325 E.01341
G1 X47.445 Y187.325 E.01295
G1 X47.445 Y187.85 E.01341
G1 X46.938 Y187.85 E.01295
G1 X46.938 Y187.325 E.01341
G1 X46.431 Y187.325 E.01295
G1 X46.431 Y187.85 E.01341
G1 X45.924 Y187.85 E.01295
G1 X45.924 Y187.325 E.01341
G1 X45.417 Y187.325 E.01295
G1 X45.417 Y187.85 E.01341
G1 X44.91 Y187.85 E.01295
G1 X44.91 Y187.325 E.01341
G1 X44.402 Y187.325 E.01297
G1 X44.402 Y187.85 E.01341
G1 X43.895 Y187.85 E.01295
G1 X43.895 Y187.325 E.01341
G1 X43.388 Y187.325 E.01295
G1 X43.388 Y187.85 E.01341
G1 X42.881 Y187.85 E.01295
G1 X42.881 Y187.325 E.01341
G1 X42.374 Y187.325 E.01295
G1 X42.374 Y187.85 E.01341
G1 X41.867 Y187.85 E.01295
G1 X41.867 Y187.325 E.01341
G1 X41.36 Y187.325 E.01295
G1 X41.36 Y187.85 E.01341
G1 X40.853 Y187.85 E.01295
G1 X40.853 Y187.325 E.01341
G1 X40.346 Y187.325 E.01295
G1 X40.346 Y187.85 E.01341
G1 X39.839 Y187.85 E.01295
G1 X39.839 Y187.325 E.01341
G1 X39.332 Y187.325 E.01295
G1 X39.332 Y187.85 E.01341
G1 X38.825 Y187.85 E.01295
G1 X38.825 Y187.325 E.01341
G1 X38.317 Y187.325 E.01297
G1 X38.317 Y187.85 E.01341
G1 X37.81 Y187.85 E.01295
G1 X37.81 Y187.325 E.01341
G1 X37.303 Y187.325 E.01295
G1 X37.303 Y187.85 E.01341
